X:1
L:1/8
Q:1/8=180
M:4/4
K:Amin
 z G | A2 AB A2 AF | GEAE GE D2 | AGAc BA =G2 | BGBd c2 Bc | A2 AB A2 AF | GEAE GE D2 | 
 AGAc BA =G2 | BGBd c2 :| cd | e2 ed efge | G2 GF GABG | AGAc BA =G2 | BGBd c2 Bc | e2 ed efge | 
 G2 GF GABG | AGAc BA =G2 | BGBd c2 :|""^last time"" BGBd c2 B2 | A8 ||
